X: 83
T: Zhai huajiao
%%abc-version 2.0
%%abcx-abcm2ps-target-version 5.9.1 (29 Sep 2008)
%%abc-creator hum2abc beta
%%abcx-conversion-date 2013/10/02 07:52:29
%%abc-edited-by Helmut Schaffrath
%%humdrum-veritas 2235018156
%%humdrum-veritas-data 3479841307
%%continueall 1
%%barnumbers 0
L: 1/8
M: 2/4
K: D
f> e d c [I:setbarnb 1]| 
B FA2 | 
B> f d c | 
B FA2 | 
F A d c/ B/ | 
A/ A B/ d F | 
A/ A/ A/ B/ A D | 
F E/ F/D2 |]  



